build/img/logo2.svg

<svg width="41" height="48" viewBox="0 0 41 48" fill="none" xmlns="http://www.w3.org/2000/svg">
<path d="M25.7691 6.14012L18.3232 0L10.8753 6.14012L0 0.868589L9.62306 17.3521H15.1575H18.3232H27.02L36.6424 0.868589L25.7691 6.14012Z" fill="#18A0FB"/>
<path d="M22.7411 24.6686H18.3231H16.7403H13.9019L9.63218 17.3502H0.688049L9.63218 32.6771H16.7396H18.3225H27.0094L35.9562 17.3502H27.0094L22.7411 24.6686Z" fill="#18A0FB"/>
<path d="M22.7411 39.9923H18.3231H16.7403H13.9019L9.63218 32.6765H0.688049L9.63218 47.9994H16.7396H18.3225H27.0094L35.9562 32.6765H27.0094L22.7411 39.9923Z" fill="#18A0FB"/>
<path d="M32.5465 15.3508L41 0.868713H38.693L30.2388 15.3508H32.5465Z" fill="#18A0FB"/>
<path d="M40.3145 17.3521H38.0068L30.2289 30.6756H32.5353L40.3145 17.3521Z" fill="#18A0FB"/>
<path d="M38.0088 32.6771L29.0797 48.0001H31.3861L40.3158 32.6771H38.0088Z" fill="#18A0FB"/>
</svg>

<svg width="41" height="48" fill="none" xmlns="http://www.w3.org/2000/svg"><path d="M25.77 6.14L18.322 0l-7.448 6.14L0 .87l9.623 16.483H27.02L36.642.87 25.77 6.14z" fill="#18A0FB"/><path d="M22.741 24.669h-8.839l-4.27-7.319H.688l8.944 15.327H27.01l8.947-15.327H27.01l-4.268 7.319z" fill="#18A0FB"/><path d="M22.741 39.992h-8.839l-4.27-7.316H.688L9.632 48H27.01l8.947-15.323H27.01l-4.268 7.316zm9.806-24.642L41 .87h-2.307l-8.454 14.48h2.308zm7.768 2.002h-2.308l-7.778 13.324h2.306l7.78-13.324zm-2.306 15.325L29.079 48h2.307l8.93-15.323h-2.307z" fill="#18A0FB"/></svg>
